X:196
T: Die Mordeltern
N: Q0085l
O: Mitteleuropa, Deutschland (DDR) , Brandenburg
N: Vierte Zeile = Refrain.
R: Ballade, Habgier, Mord, Reue, Selbstmord
M: 4/4
L: 1/8
K: G
D2 | G2G2d2d2 | dcB2d2
B2 | d2d2edcB | BAA2A2
G2 | d2d2edcB | c4B2z2 |
A2A2G2G2 | g3ag2
e2 | d3edcBA | A4G2

@@@ Tune index: 1251
